public/img/windicss.svg

<svg xmlns="http://www.w3.org/2000/svg" width="128" height="128" viewBox="0 0 128 128" fill="none">
<path d="M67.0788 31.5813C67.0788 21.8864 59.1923 14 49.4975 14C39.2803 14 33.1721 21.6604 33.1721 29.0696H43.2185C43.2185 26.985 45.1675 24.0464 49.4975 24.0464C53.6517 24.0464 57.0323 27.4271 57.0323 31.5813C57.0323 35.7355 54 39.1161 46.3533 39.1161H19V49.1625H46.3533C59.259 49.1625 67.0788 41.2761 67.0788 31.5813ZM67.0788 31.5813C67.0788 21.8864 59.1923 14 49.4975 14C39.2803 14 33.1721 21.6604 33.1721 29.0696H43.2185C43.2185 26.985 45.1675 24.0464 49.4975 24.0464C53.6517 24.0464 57.0323 27.4271 57.0323 31.5813C57.0323 35.7355 54 39.1161 46.3533 39.1161H19V49.1625H46.3533C59.259 49.1625 67.0788 41.2761 67.0788 31.5813Z" fill="url(#paint0_linear)"/>
<path d="M89.3667 96.4187C89.3667 106.114 81.4802 114 71.7854 114C61.5682 114 55.4599 106.34 55.4599 98.9304H65.5064C65.5064 101.015 67.4554 103.954 71.7854 103.954C75.9396 103.954 79.3202 100.573 79.3202 96.4187C79.3202 92.2645 75.5 88.8839 68.6412 88.8839L38.2879 88.8839L38.2879 78.8375L68.6412 78.8375C81.5469 78.8375 89.3667 86.7239 89.3667 96.4187ZM89.3667 96.4187C89.3667 106.114 81.4802 114 71.7854 114C61.5682 114 55.4599 106.34 55.4599 98.9304H65.5064C65.5064 101.015 67.4554 103.954 71.7854 103.954C75.9396 103.954 79.3202 100.573 79.3202 96.4187C79.3202 92.2645 75.5 88.8839 68.6412 88.8839L38.2879 88.8839L38.2879 78.8375L68.6412 78.8375C81.5469 78.8375 89.3667 86.7239 89.3667 96.4187Z" fill="url(#paint1_linear)"/>
<path d="M92 29.5C80.9188 29.5 73.102 37.9269 73.102 49.0081H82C82 43.5 86 39.5 92 39.5C98 39.5 101 43.5 101 49.0081C101 54.5162 97.1036 59.0545 86.5 59.0545H19V69.101H88C103.703 69.101 111 59.0081 111 49.0081C111 37.9269 103.5 29.5 92 29.5Z" fill="url(#paint2_linear)"/>
<path d="M32.1701 78.8375H19V88.9683H32.1701V78.8375Z" fill="url(#paint3_linear)"/>
<defs>
<linearGradient id="paint0_linear" x1="27" y1="22.5" x2="85" y2="114" gradientUnits="userSpaceOnUse">
<stop offset="0.078225" stop-color="#54C8F1"/>
<stop offset="0.572917" stop-color="#41A2EF"/>
<stop offset="1" stop-color="#3386EE"/>
</linearGradient>
<linearGradient id="paint1_linear" x1="27" y1="22.5" x2="85" y2="114" gradientUnits="userSpaceOnUse">
<stop offset="0.078225" stop-color="#54C8F1"/>
<stop offset="0.572917" stop-color="#41A2EF"/>
<stop offset="1" stop-color="#3386EE"/>
</linearGradient>
<linearGradient id="paint2_linear" x1="27" y1="22.5" x2="85" y2="114" gradientUnits="userSpaceOnUse">
<stop offset="0.078225" stop-color="#54C8F1"/>
<stop offset="0.572917" stop-color="#41A2EF"/>
<stop offset="1" stop-color="#3386EE"/>
</linearGradient>
<linearGradient id="paint3_linear" x1="27" y1="22.5" x2="85" y2="114" gradientUnits="userSpaceOnUse">
<stop offset="0.078225" stop-color="#54C8F1"/>
<stop offset="0.572917" stop-color="#41A2EF"/>
<stop offset="1" stop-color="#3386EE"/>
</linearGradient>
</defs>
</svg>

<svg xmlns="http://www.w3.org/2000/svg" width="36" height="36" viewBox="0 0 128 128" fill="none"><path d="M67.079 31.581C67.079 21.886 59.192 14 49.498 14c-10.218 0-16.326 7.66-16.326 15.07H43.22c0-2.085 1.948-5.024 6.279-5.024 4.154 0 7.534 3.381 7.534 7.535 0 4.155-3.032 7.535-10.679 7.535H19v10.047h27.353c12.906 0 20.726-7.887 20.726-17.582Zm0 0C67.079 21.886 59.192 14 49.498 14c-10.218 0-16.326 7.66-16.326 15.07H43.22c0-2.085 1.948-5.024 6.279-5.024 4.154 0 7.534 3.381 7.534 7.535 0 4.155-3.032 7.535-10.679 7.535H19v10.047h27.353c12.906 0 20.726-7.887 20.726-17.582Z" fill="url(#a)"/><path d="M89.367 96.419c0 9.695-7.887 17.581-17.582 17.581-10.217 0-16.325-7.66-16.325-15.07h10.046c0 2.085 1.95 5.024 6.28 5.024 4.154 0 7.534-3.381 7.534-7.535s-3.82-7.535-10.679-7.535H38.288V78.838H68.64c12.906 0 20.726 7.886 20.726 17.58Zm0 0c0 9.695-7.887 17.581-17.582 17.581-10.217 0-16.325-7.66-16.325-15.07h10.046c0 2.085 1.95 5.024 6.28 5.024 4.154 0 7.534-3.381 7.534-7.535s-3.82-7.535-10.679-7.535H38.288V78.838H68.64c12.906 0 20.726 7.886 20.726 17.58Z" fill="url(#b)"/><path d="M92 29.5c-11.081 0-18.898 8.427-18.898 19.508H82C82 43.5 86 39.5 92 39.5s9 4 9 9.508c0 5.508-3.896 10.046-14.5 10.046H19v10.047h69c15.703 0 23-10.093 23-20.093 0-11.081-7.5-19.508-19-19.508Z" fill="url(#c)"/><path d="M32.17 78.838H19v10.13h13.17v-10.13Z" fill="url(#d)"/><defs><linearGradient id="a" x1="27" y1="22.5" x2="85" y2="114" gradientUnits="userSpaceOnUse"><stop offset=".078" stop-color="#54C8F1"/><stop offset=".573" stop-color="#41A2EF"/><stop offset="1" stop-color="#3386EE"/></linearGradient><linearGradient id="b" x1="27" y1="22.5" x2="85" y2="114" gradientUnits="userSpaceOnUse"><stop offset=".078" stop-color="#54C8F1"/><stop offset=".573" stop-color="#41A2EF"/><stop offset="1" stop-color="#3386EE"/></linearGradient><linearGradient id="c" x1="27" y1="22.5" x2="85" y2="114" gradientUnits="userSpaceOnUse"><stop offset=".078" stop-color="#54C8F1"/><stop offset=".573" stop-color="#41A2EF"/><stop offset="1" stop-color="#3386EE"/></linearGradient><linearGradient id="d" x1="27" y1="22.5" x2="85" y2="114" gradientUnits="userSpaceOnUse"><stop offset=".078" stop-color="#54C8F1"/><stop offset=".573" stop-color="#41A2EF"/><stop offset="1" stop-color="#3386EE"/></linearGradient></defs></svg>
